X:1
T:110 - Quando Cristo Vier
T:Letra: William Orcutt Cushing (1823-1902)
T:Trad.: Salomão Luiz Ginsburg (1867-1927)
T:Música: Ira David Sankey (1840-1908)
M:4/4
L:1/8
Q:1/4=100
K:F
V:1
F>G | "F"A3C C2 CC | "Bb"D2 F2 "F"F2 F>G | A2 c2 d2 cA | "C"A2 G2 G2 F>G | A3C C2 CC | "Bb"D2 F2 "F"F2 G>A | c3F "F/C"A2 "C7"G2 | "F"F4z2 || A>B | c3c (dc) A2 | c6 A>B | c3f "C/G"e2 "G7"d2 | "C7"c4 "F"z2 "C7"c>d | "F"c2 F2 A2 AF | "Bb"D2 F2 "F"F2 G>A | c3F "F/C"A2 "C7"G2 | "F"F4z2 |]
w: 1.~Quan-do Cris-toos cren-tes vi-er bus-car, To-do va-lees-cu-ro há de sea-cla-rar, Quan-do Cris-toos cren-tes vi-er bus-car, Pra go-zar noe-ter-no lar.     Quan-do nos vi-er_ bus-car,    Quan-do Cris-to re-gres-sar,    To-do va-lees-cu-rohá de sea-cla-rar;     Pra go-zar nos vem bus-car.  
w: 2.~Quan-do Cris-toos cren-tes vi-er bus-car, To-das as tris-te-zas hão dea-ca-bar, Quan-do Cris-toos cren-tes vi-er bus-car, Pra go-zar noe-ter-no lar.  
w: 3.~Quan-do Cris-toos cren-tes vi-er bus-car, To-doo seu re-cei-o seex-tin-gui-rá, Pois a mor-te não mais e-xis-ti-rá, Quan-do nos vi-er bus-car.  
w: 4.~Quan-do Cris-toos cren-tes vi-er bus-car, Um bem-vin-doa-le-gre há de res-soar; E-le nun-ca mais nos i-rá dei-xar, Quan-do nos vi-er bus-car.          
W: 
W:
W: 1. Quando Cristo os crentes vier buscar,
W: Todo vale escuro há de se aclarar,
W: Quando Cristo os crentes vier buscar,
W: Pra gozar no eterno lar.
W: 
W:    (Estribilho)
W:    Quando nos vier buscar,
W:    Quando Cristo regressar,
W:    Todo vale escuro há de se aclarar; 
W:    Pra gozar nos vem buscar.
W: 
W: 2. Quando Cristo os crentes vier buscar,
W: Todas as tristezas hão de acabar,
W: Quando Cristo os crentes vier buscar,
W: Pra gozar no eterno lar.
W: 
W: 
W: 
W: 3. Quando Cristo os crentes vier buscar,
W: Todo o seu receio se extinguirá,
W: Pois a morte não mais existirá,
W: Quando nos vier buscar.
W: 
W: 4. Quando Cristo os crentes vier buscar,
W: Um bem-vindo alegre há de ressoar;
W: Ele nunca mais nos irá deixar,
W: Quando nos vier buscar.
W:         
W: 				         
W:           





